dist/images/followUsToFacebook.svg

<svg width="48" height="48" viewBox="0 0 48 48" fill="none" xmlns="http://www.w3.org/2000/svg">
<circle cx="24" cy="24" r="24" fill="#F37021"/>
<path d="M28.0417 17.4167H25.9167C24.9774 17.4167 24.0765 17.7898 23.4123 18.454C22.7481 19.1182 22.375 20.019 22.375 20.9583V23.0833H20.25V25.9167H22.375V31.5833H25.2083V25.9167H27.3333L28.0417 23.0833H25.2083V20.9583C25.2083 20.7705 25.283 20.5903 25.4158 20.4575C25.5486 20.3246 25.7288 20.25 25.9167 20.25H28.0417V17.4167Z" stroke="white" stroke-linecap="round" stroke-linejoin="round"/>
</svg>

<svg width="48" height="48" fill="none" xmlns="http://www.w3.org/2000/svg"><circle cx="24" cy="24" r="24" fill="#F37021"/><path d="M28.042 17.417h-2.125a3.542 3.542 0 0 0-3.542 3.541v2.125H20.25v2.834h2.125v5.666h2.833v-5.666h2.125l.709-2.834h-2.834v-2.125a.708.708 0 0 1 .709-.708h2.125v-2.833Z" stroke="#fff" stroke-linecap="round" stroke-linejoin="round"/></svg>
